src/icons/contributing.svg

<svg width="16" height="16" viewBox="0 0 16 16" fill="none" xmlns="http://www.w3.org/2000/svg">
<path fill-rule="evenodd" clip-rule="evenodd" d="M12.5 3H11.5V5.5H4.5V3H3.5C3.36739 3 3.24021 3.05268 3.14645 3.14645C3.05268 3.24021 3 3.36739 3 3.5V13C3 13.1326 3.05268 13.2598 3.14645 13.3536C3.24021 13.4473 3.36739 13.5 3.5 13.5H12.5C12.6326 13.5 12.7598 13.4473 12.8536 13.3536C12.9473 13.2598 13 13.1326 13 13V3.5C13 3.36739 12.9473 3.24021 12.8536 3.14645C12.7598 3.05268 12.6326 3 12.5 3ZM11 11H5V10H11V11ZM5 8.5H11V7.5H5V8.5Z" fill="#82AAFF"/>
<path d="M9 2.5C9 2.23478 8.89464 1.98043 8.70711 1.79289C8.51957 1.60536 8.26522 1.5 8 1.5C7.73478 1.5 7.48043 1.60536 7.29289 1.79289C7.10536 1.98043 7 2.23478 7 2.5H5.5V4.5H10.5V2.5H9Z" fill="#FF9CAC"/>
</svg>

<svg xmlns="http://www.w3.org/2000/svg" width="16" height="16" fill="none"><path fill="#82AAFF" fill-rule="evenodd" d="M12.5 3h-1v2.5h-7V3h-1a.5.5 0 0 0-.5.5V13a.5.5 0 0 0 .5.5h9a.5.5 0 0 0 .5-.5V3.5a.5.5 0 0 0-.5-.5M11 11H5v-1h6zM5 8.5h6v-1H5z" clip-rule="evenodd"/><path fill="#FF9CAC" d="M9 2.5a1 1 0 1 0-2 0H5.5v2h5v-2z"/></svg>
